X:1
T:Like a Wayward Child I Wandered
T:Like a Wayward Child I Wandered
T:Anthony Johnson Showalter
T:Frances Jane (Fanny) Crosby, 1896
T:Public Domain Courtesy of the Cyber Hymnal™
C:Anthony Johnson Showalter
Z:Public Domain
Z:Courtesy of the Cyber Hymnal™
%%score ( 1 2 ) ( 3 4 )
L:1/8
Q:1/4=105
M:4/4
K:E
V:1 treble 
V:2 treble 
V:3 bass 
V:4 bass 
V:1
 [EB]3 [E^A] [Ec][EB] E>[EF] | [EG]2 [EG]6 | [DF]3 [EG] [FA][DF] [EB]>[DA] | [EG]8 | %4
w: 1.~Like a way- ward child I|wan- dered|From my Fa- ther’s house a-|way,|
w: 2.~I have wan- dered in the|dark- ness,|And my path was lone and|drear,|
w: 3.~O the rap- ture that a-|waits me|When I reach my Fa- ther’s|door!|
w: 4.~I will ask Him to for-|give me|For the wrong that I have|done,|
 [GB]3 [^^F^A] [=Ac][GB] [Ge]>[Bd] | [Bd]2 [Ac]6 | [Ad]3 [Ac] [GB][^^F^A] [^F=A]>[DF] | E8 || %8
w: But I hear His voice en-|treat- ing,|And I’m com- ing home to-|day.|
w: But my Fa- ther did not|leave me,|He was watch- ing ev- er|near.|
w: Once with- in its blest en-|clo- sure,|I am safe for- ev- er-|more.|
w: To re- ceive, ac- cept and|bless me,|Through His well be- lov- èd|Son.|
"^Refrain" [DF]/ B2- [AB]3/2 [GB]4 | [Ac]/ e2- [Ae]3/2 [Ge]4 | [GB]3 [GB] [Ac][GB] [EG]>E | [DF]8 | %12
w: ||||
w: Com- ing,~com- ing home,|Com- ing,~com- ing home,|For I can no long- er|roam;|
w: ||||
w: ||||
 [GB]3 [^^F^A] [=Ac][GB] [Ge]>[Bd] | [Bd]2 [Ac]6 | [Ad]3 [Ac] [GB]<[^^F^A] [^F=A]>[DF] | %15
w: |||
w: I am sad and brok- en|hearte- d,|And I’m com- ing, com- ing|
w: |||
w: |||
 (E>B,C<C) B,4 |] %16
w: |
w: home! * * * *|
w: |
w: |
V:2
 x6 E3/2 x/ | x8 | x8 | x8 | x8 | x8 | x8 | E8 || x/ F3/2 F/ x11/2 | x/ A3/2 A/ x11/2 | x15/2 E/ | %11
 x8 | x8 | x8 | x8 | E8 |] %16
V:3
 [E,G,]3 [E,^^F,] [E,A,][E,G,] [E,G,]>[E,A,] | [E,B,]2 [E,B,]6 | %2
 [B,,B,]3 [B,,B,] [B,,B,][A,B,] [G,B,]>[F,B,] | [E,B,]8 | [E,E]3 [E,E] [E,E][E,E] [E,B,]>[G,E] | %5
 [A,E]2 [A,E]6 | B,3 B, [B,,B,][B,,B,] [B,,B,]>[B,,A,] | [E,G,]8 || %8
 [B,,B,]<[B,,D] [B,,D]<[B,,D] [E,E]4 | [A,E]<[A,C] [A,C]<[A,C] [E,B,]4 | %10
 [E,E]3 [E,E] [E,E][E,E] [E,B,]>[E,G,] | ([B,,A,]3 C B,A, G,F,) | %12
 [E,E]3 [E,E] [E,E][E,E] [E,B,]>[G,E] | [A,E]2 [A,E]6 | B,3 B, [B,,B,]<[B,,B,] [B,,B,]>[B,,A,] | %15
 (G,>G,A,<A, G,4) |] %16
V:4
 x8 | x8 | x8 | x8 | x8 | x8 | B,3 B, x4 | x8 || x8 | x8 | x8 | x8 | x8 | x8 | B,3 B, x4 | E,8 |] %16

